!!!!SEGMENT: pl-wn--sd-xvi-o-239_anonim--kancjonal-zamoyskich-przestrach-na-zle-sprawy-ludzkiego-zywota-coz-chcesz-czynic-mily-bracie.krn
!!!cenid: 15xx:797
!!!COM: Anonim
!!!COM-rismID: pe30004985
!!!CDT:
!!!CNT:
!!!GTL: Kancjonał Zamoyskich
!!!OTL: Przestrach na złe sprawy ludzkiego żywota/Cóż chcesz czynić miły bracie
!!!PDT: 1558
!!!AGN:
!!!SMS-siglum: PL-Wn
!!!SMS-shelfmark: SD XVI.O.239
!!!SMS-shelfwork: G
!!!SMS-variant:
!!!SMS-altvar:
!!!NIFC-rismSourceID:
!!!NIFC-islandoraID:
!!!URL-pdf-islandora:
!!!URL-scan: https://polona.pl/item/przestrach-na-zle-sprawy-ludzkiego-zywota,MjYzMjc3/3 @EN{Scan on Polona} @PL{Skany w portalu Polona}
!!!ONB-nifc: UWAGA: proszę zapisywać tylko teksty występujące bezpośrednio pod nutami
!!!AIN: 1 alto 1 bass 1 soprn 1 tenor
!!!key: d:aeo
**kern	**text	**mod-text	**kern	**text	**mod-text	**kern	**text	**mod-text	**kern	**text	**mod-text
*part4	*part4	*part4	*part3	*part3	*part3	*part2	*part1	*part2	*part1	*part1	*part1
*staff4	*staff4	*staff4	*staff3	*staff3	*staff3	*staff2	*staff1	*staff2	*staff1	*staff1	*staff1
*I"BASS.	*	*	*I"TENOR.	*	*	*I"ALT.	*	*	*I"CANTVS.	*	*
*mI"Basso	*	*	*mI"Tenore	*	*	*mI"Alto	*	*	*mI"Soprano	*	*
*I'B	*	*	*I'T	*	*	*I'A	*	*	*I'S	*	*
*Ibass	*	*	*Itenor	*	*	*Ialto	*	*	*Isoprn	*	*
*ICvox	*	*	*ICvox	*	*	*ICvox	*	*	*ICvox	*	*
*clefF3	*	*	*clefC3	*	*	*clefC1	*	*	*clefG2	*	*
*mclefF4	*	*	*mclefGv2	*	*	*mclefG2	*	*	*	*	*
*k[b-]	*	*	*k[b-]	*	*	*k[b-]	*	*	*k[b-]	*	*
*d:aeo	*	*	*d:aeo	*	*	*d:aeo	*	*	*d:aeo	*	*
*M3/1	*	*	*M3/1	*	*	*M3/1	*	*	*M3/1	*	*
*met(C)	*	*	*met(C)	*	*	*met(C)	*	*	*met(C)	*	*
=1-	=1-	=1-	=1-	=1-	=1-	=1-	=1-	=1-	=1-	=1-	=1-
!LO:TX:t=P:problem:przy kluczu BB- B-	!	!	!	!	!	!	!	!	!	!	!
2F/	Coż	Coż	2f\	Coż	Coż	2cc\	.	Coż	2ff\	.	Coż
2F/	chceſʒ	chcesz	2f\	chceſʒ	chcesz	2cc\	.	chcesz	2ff\	.	chcesz
1B-	cʒy-	czy-	1f	cʒy-	czy-	1b-	.	czy-	1dd	.	czy-
1F	-nić	-nić	1f	-nić	-nić	1a	.	-nić	1cc	.	-nić
=2-	=2-	=2-	=2-	=2-	=2-	=2-	=2-	=2-	=2-	=2-	=2-
2c\	mi-	mi-	2e\	mi-	mi-	2g/	.	mi-	2cc/	.	mi-
2c\	-ły	-ły	2e\	-ły	-ły	2g/	.	-ły	2cc/	.	-ły
1c	brá-	bra-	1e	brá-	bra-	1cc	.	bra-	1ee	.	bra-
1G	-ćie/	-cie	1g	-ćie/	-cie	1b-	.	-cie	1dd	.	-cie
*custos:B	*	*	*custos:d	*	*	*	*	*	*	*	*
!LO:LB:g=original	!	!	!LO:LB:g=original	!	!	!	!	!	!	!	!
=3-	=3-	=3-	=3-	=3-	=3-	=3-	=3-	=3-	=3-	=3-	=3-
2B-\	Sżpe-	szpe-	2d\	ſſpe-	szpe-	2f/	.	szpe-	2b-/	.	szpe-
2B-\	-tny	-tny	2d\	-tny	-tny	2f/	.	-tny	2b-/	.	-tny
1B-	prʒe-	prze-	1d	prʒe-	prze-	1b-	.	prze-	1dd	.	prze-
*	*	*	*	*	*	*custos:a	*	*	*	*	*
!	!	!	!	!	!	!LO:LB:g=original	!	!	!	!	!
1F	-strách	-strach	1f	-strách	-strach	2.a\	.	-strach	1cc	.	-strach
.	.	.	.	.	.	4f\	.	.	.	.	.
*	*	*	*	*	*	*	*	*	*custos:g	*	*
!	!	!	!	!	!	!	!	!	!LO:LB:g=original	!	!
=4-	=4-	=4-	=4-	=4-	=4-	=4-	=4-	=4-	=4-	=4-	=4-
2c\	ʒe-	ze-	2e\	ʒe-	ze-	2g/	.	ze-	2g/	.	ze-
2F\	-wſʒąd	-wsząd	2f\	-wſſąd	-wsząd	2a\	.	-wsząd	1cc\	.	-wsząd
1G	ná	na	1d	ná	na	1g	.	na	.	.	.
!	!	!	!	!	!	!	!	!	!LO:SIC:s=2bi	!	!
.	.	.	.	.	.	.	.	.	2b-/	.	na
1C	ćye.	cię.	1c	ćyę.	cię.	1e	.	cię.	1cc	.	cię.
*custos:F	*	*	*custos:c	*	*	*	*	*	*	*	*
!LO:LB:g=original	!	!	!LO:LB:g=original	!	!	!	!	!	!	!	!
=5-	=5-	=5-	=5-	=5-	=5-	=5-	=5-	=5-	=5-	=5-	=5-
2r	.	.	2r	.	.	2r	.	.	2r	.	.
2F/	Strá-	Stra-	2c/	Strá-	Stra-	2f/	.	Stra-	2a/	.	Stra-
2F/	-ſſʒy	-szy	2c/	-ſſy	-szy	2f/	.	-szy	2a/	.	-szy
2BB-/	ćię	cię	2f\	ćyę	cię	2d/	.	cię	2b-/	.	cię
1F	ſmierć/	śmierć	1c	ſmierć	śmierć	1f	.	śmierć	1a	.	śmierć
=6-	=6-	=6-	=6-	=6-	=6-	=6-	=6-	=6-	=6-	=6-	=6-
2D/	ſtra-	stra-	2d\	ſtrá-	stra-	2f/	.	stra-	2a/	.	stra-
2F/	-ſſy	-szy	2c/	-ſſy	-szy	1f/	.	-szy	2a/	.	-szy
1C	ćye	cię	1c	ćyę	cię	.	.	.	1g	.	cię
.	.	.	.	.	.	2e/	.	cię	.	.	.
*	*	*	*	*	*	*custos:f	*	*	*	*	*
!	!	!	!	!	!	!LO:LB:g=original	!	!	!	!	!
1F	grzech	grzech	1A	grzech/	grzech	2f/	.	grzech	1a	.	grzech
.	.	.	.	.	.	1f/	.	więc	.	.	.
*custos:D	*	*	*custos:d	*	*	*	*	*	*	*	*
!LO:LB:g=original	!	!	!LO:LB:g=original	!	!	!	!	!	!	!	!
=7-	=7-	=7-	=7-	=7-	=7-	=7-	=7-	=7-	=7-	=7-	=7-
2D/	Więc	więc	2d\	Więc	więc	.	.	.	2f/	.	więc
2E/	cʒárt	czart	2c\	cʒárt	czart	2e/	.	czart	2g/	.	czart
*	*	*	*	*	*	*	*	*	*custos:a	*	*
!	!	!	!	!	!	!	!	!	!LO:LB:g=original	!	!
2F/	ʒ_pie-	z_pie-	2c\	ſ_pie-	z_pie-	2c/	.	z_pie-	2a/	.	z_pie-
2F/	-kłem	-kłem	2A/	-kłem	-kłem	2f/	.	-kłem	2.cc\	.	-kłem
2.C/	y	i	1c	y	i	1.e	.	i	.	.	.
.	.	.	.	.	.	.	.	.	4b-/	.	.
.	.	.	.	.	.	.	.	.	2a/	.	i
4D/	.	.	.	.	.	.	.	.	.	.	.
=8-	=8-	=8-	=8-	=8-	=8-	=8-	=8-	=8-	=8-	=8-	=8-
2E/	.	toć	2B-/	toć	toć	.	.	.	2g/	.	toć
2F/	to	.	2A/	toć	.	2c/	.	toć	1f/	.	.
1C	nie	nie	1G	nie	nie	1c	.	nie	.	.	.
.	.	.	.	.	.	.	.	.	2e/	.	nie
1Fl/	ſmiech.	śmiech.	1Fl	ſmiech.	śmiech.	1cl	.	śmiech.	1fl	.	śmiech.
==	==	==	==	==	==	==	==	==	==	==	==
*-	*-	*-	*-	*-	*-	*-	*-	*-	*-	*-	*-
!!!system-decoration: [(*)]
!!LO:MO:ori
!!!RDF**kern: l = terminal long
!!LO:MO:mod
!! !!!RDF**kern: i = editorial accidental
!!LO:MO:end
!!!filter-modern: shed -e "s/TX(.*):t=P:/tx$1:t=P:/LG" | shed -e "s/^custos:/Xcustos:/I" | sic -sq | modori -m | autostem -r | tie -s | humtr -p | shed -e "s/-//B"
!!!ENC: Andrzej Kubiczek
!!!END: 2022-04-22
!!!ENC: Andrzej Kubiczek
!!!END: 2022-04-25
!!!ENC-modern: Andrzej Kubiczek
!!!END-modern: 2022-07-22
!!!YEC: Copyright 2022 Narodowy Instytut Fryderyka Chopina (https://polishscores.org)
!!!YEM: Licence CC BY 4.0 (https://creativecommons.org/licenses/by/4.0)
